lib/functional/education/books.svg

<svg xmlns="http://www.w3.org/2000/svg" fill="none" stroke="currentColor" aria-hidden="true" viewBox="0 0 32 32"><g id="Icon-Books"><g clip-path="url(#clip0_11_4426)"><g id="size=md (32px)"><g id="Books"><path id="Vector" stroke-linecap="round" stroke-linejoin="round" stroke-width="2" d="M10 5H6C5.44772 5 5 5.44772 5 6V26C5 26.5523 5.44772 27 6 27H10C10.5523 27 11 26.5523 11 26V6C11 5.44772 10.5523 5 10 5Z"/><path id="Vector_2" stroke-linecap="round" stroke-linejoin="round" stroke-width="2" d="M5 10H11"/><path id="Vector_3" stroke-linecap="round" stroke-linejoin="round" stroke-width="2" d="M16 5H12C11.4477 5 11 5.44772 11 6V26C11 26.5523 11.4477 27 12 27H16C16.5523 27 17 26.5523 17 26V6C17 5.44772 16.5523 5 16 5Z"/><path id="Vector_4" stroke-linecap="round" stroke-linejoin="round" stroke-width="2" d="M11 22H17"/><path id="Vector_5" stroke-linecap="round" stroke-linejoin="round" stroke-width="2" d="M21.9418 4.67278L18.0618 5.71278C17.5261 5.85637 17.2082 6.40706 17.3518 6.94278L22.5518 26.3428C22.6954 26.8785 23.2461 27.1964 23.7818 27.0528L27.6618 26.0128C28.1975 25.8692 28.5154 25.3185 28.3718 24.7828L23.1718 5.38278C23.0282 4.84706 22.4775 4.52918 21.9418 4.67278Z"/><path id="Vector_6" stroke-linecap="round" stroke-linejoin="round" stroke-width="2" d="M21.4004 22.4L27.2004 20.8375"/><path id="Vector_7" stroke-linecap="round" stroke-linejoin="round" stroke-width="2" d="M18.2998 10.8L24.0998 9.25"/></g></g></g></g><defs><clipPath id="clip0_11_4426"><rect width="32" height="32" fill="white" rx="5"/></clipPath></defs></svg>

<svg xmlns="http://www.w3.org/2000/svg" fill="none" stroke="currentColor" aria-hidden="true" viewBox="0 0 32 32"><g stroke="#101828" stroke-linecap="round" stroke-linejoin="round" stroke-width="2" clip-path="url(#a)"><path d="M10 5H6a1 1 0 0 0-1 1v20a1 1 0 0 0 1 1h4a1 1 0 0 0 1-1V6a1 1 0 0 0-1-1Zm-5 5h6m5-5h-4a1 1 0 0 0-1 1v20a1 1 0 0 0 1 1h4a1 1 0 0 0 1-1V6a1 1 0 0 0-1-1Zm-5 17h6m4.942-17.327-3.88 1.04a1.004 1.004 0 0 0-.71 1.23l5.2 19.4c.143.535.694.853 1.23.71l3.88-1.04c.536-.144.853-.695.71-1.23l-5.2-19.4a1.004 1.004 0 0 0-1.23-.71ZM21.4 22.4l5.8-1.563M18.3 10.8l5.8-1.55"/></g><defs><clipPath id="a"><rect width="32" height="32" fill="#fff" rx="5"/></clipPath></defs></svg>
